assets/icons/qvision/disc_full.svg

<svg width="24" height="24" viewBox="0 0 24 24" fill="none" xmlns="http://www.w3.org/2000/svg">
<g clip-path="url(#clip0_147_5928)">
<path d="M20 16H22V14H20V16ZM20 7V12H22V7H20ZM10 4C5.58 4 2 7.58 2 12C2 16.42 5.58 20 10 20C14.42 20 18 16.42 18 12C18 7.58 14.42 4 10 4ZM10 14C8.9 14 8 13.1 8 12C8 10.9 8.9 10 10 10C11.1 10 12 10.9 12 12C12 13.1 11.1 14 10 14Z" fill="#323232"/>
</g>
<defs>
<clipPath id="clip0_147_5928">
<rect width="24" height="24" fill="white"/>
</clipPath>
</defs>
</svg>

<svg xmlns="http://www.w3.org/2000/svg" height="24" viewBox="0 0 24 24" width="24"><path d="M0 0h24v24H0z" fill="none"/><path d="M20 16h2v-2h-2v2zm0-9v5h2V7h-2zM10 4c-4.42 0-8 3.58-8 8s3.58 8 8 8 8-3.58 8-8-3.58-8-8-8zm0 10c-1.1 0-2-.9-2-2s.9-2 2-2 2 .9 2 2-.9 2-2 2z"/></svg>
